X: 15997
T: Gravel Walks, The
R: reel
M: 4/4
K: Adorian
|:"Am"A2eA BAeA|A2ed "G"BAGB|"Am"A2eA Bdef|"G"gedc BAGB:|
"A"A2aA gAfA|eAdc "G"BAGB|"A"A2aA gAfa|"G"gedc BAGB|
"A"A2aA gAfA|eAdc "G"BAGB|"F"ABcd "Em"egfa|"G"gedc BAGB||
|:"Am"cAAG A2AB|cAAG "G"BGBd|"Am"cAAG A2ef|"G"gfge dBGB:|
|:"C" c2gc acgc|c2gc "G"BAGB|"C" gc acga|"G"gedc BAGB|
"C"c2gc acgc|c2gc "G"BAGB|"F"ABcd "Em"egfa|1 "G"gedc BAGB:|2 "Am"gedc BAGB||A8||

